fs/bluetooth_24_regular.svg

<svg viewBox="0 0 24 24" fill="none" xmlns="http://www.w3.org/2000/svg" height="1em" width="1em">
  <path d="M11.6978 12.9737L14.3802 15.2109L11.5044 18.3278V13.1348L11.6978 12.9737ZM12.8693 11.9976L15.9462 9.43399C16.2759 9.15927 16.3083 8.66442 16.0172 8.34907L11.3055 3.24475C10.8425 2.74308 10.0044 3.07073 10.0044 3.75346V9.60811L8.88421 8.67379C8.56611 8.40848 8.09317 8.45127 7.82786 8.76937C7.56256 9.08747 7.60535 9.56041 7.92345 9.82571L10.0044 11.5614V12.4321L7.92374 14.1657C7.60551 14.4309 7.56247 14.9038 7.82762 15.222C8.09276 15.5402 8.56568 15.5833 8.88391 15.3181L10.0044 14.3845V20.2466C10.0044 20.9295 10.8426 21.2571 11.3057 20.7552L16.0173 15.6486C16.3082 15.3333 16.2759 14.8388 15.9465 14.564L12.8693 11.9976ZM11.6983 11.0208L11.5044 10.8592V5.6717L14.3798 8.78667L11.6983 11.0208Z" fill="#212121"/>
</svg>

<svg viewBox="0 0 24 24" fill="none" xmlns="http://www.w3.org/2000/svg" height="1em" width="1em">
  <path d="m11.698 12.974 2.682 2.237-2.876 3.117v-5.193l.194-.161Zm1.171-.976 3.077-2.564a.75.75 0 0 0 .071-1.085l-4.711-5.104a.75.75 0 0 0-1.302.508v5.855l-1.12-.934a.75.75 0 1 0-.96 1.152l2.08 1.735v.871l-2.08 1.734a.75.75 0 0 0 .96 1.152l1.12-.934v5.863a.75.75 0 0 0 1.302.508l4.711-5.106a.75.75 0 0 0-.07-1.085l-3.078-2.566Zm-1.17-.977-.195-.162V5.672l2.876 3.115-2.682 2.234Z" fill="#212121"/>
</svg>
